X:1
T:Title
%%score { ( 1 4 ) | ( 2 3 ) }
L:1/8
M:6/8
K:Bb
V:1 treble nm="Grand Piano"
V:4 treble 
V:2 bass 
V:3 bass 
V:1
 z3 z2[Q:1/4=100] [DF] | [DB]2 [DB] [FB][EA][DB] | c2 A F2 F | G2 [GB] AGA | [DB]3- [DB]2 [DF] | %5
 [DB]2 [DB] [FB][EA][DB] | c2 A F2 F | G2 [GB] AGA | [DB]6 | [Fd]3 dc[FB] | [Fc]3 [Ac]3 | %11
 [GB]3 [Bd]c[DGB] | [D^FA]3 [CFA]3 | [B,G]3 [GB][FA][EG] | [DF]3 [DB]2 [Fd] | c2 c B2 A | %16
[M:5/8] [DB]-[DB]- [DB]3 |] %17
V:2
 z3 z2 [B,,B,] | [B,,F,]2 [B,,F,] [D,F,][C,F,][B,,F,] | [F,A,F]2 [F,CF] [F,A,]2 [D,B,] | z3 .C3 | %4
 [B,,B,]3- [B,,B,]2 [B,,B,] | z3 .F,3 | [F,A,F]2 [F,CF] [F,A,]2 [D,B,] | %7
 [E,B,E]2 [E,E] [F,CE]2 [F,CE] | [B,,B,]6 | [B,,B,]3 [B,,B,][C,A,][D,B,] | [F,A,]3 [F,E]3 | %11
 [G,D]3 z A[K:bass]G, | D,3 D,3 | E,3 [E,B,]2 [E,B,] | [B,,B,]3 [B,,F,]2 [B,,B,] | %15
 [E,G,E]2 [E,G,E] [F,D]2 [F,C] |[M:5/8] [B,,F,]-[B,,F,]- [B,,F,]3 |] %17
V:3
 x6 | x6 | x6 | [E,B,E]2 [E,E] [F,E]-[F,B,E][F,CE] | x6 | [B,,F,]2 [B,,F,] D,C,[B,,F,] | x6 | x6 | %8
 x6 | x6 | x6 | z3 .[G,D]3[K:bass] | x6 | x6 | x6 | x6 |[M:5/8] x5 |] %17
V:4
 x6 | x6 | x6 | x6 | x6 | x6 | x6 | x6 | x6 | z3 .F3 | x6 | x6 | x6 | x6 | x6 | x6 |[M:5/8] x5 |] %17

